src/activities/hexagon/resource/hexagon.svg

<?xml version="1.0" encoding="UTF-8" standalone="no"?>
<!-- Created with Inkscape (http://www.inkscape.org/) -->

<svg
   xmlns:dc="http://purl.org/dc/elements/1.1/"
   xmlns:cc="http://creativecommons.org/ns#"
   xmlns:rdf="http://www.w3.org/1999/02/22-rdf-syntax-ns#"
   xmlns:svg="http://www.w3.org/2000/svg"
   xmlns="http://www.w3.org/2000/svg"
   xmlns:sodipodi="http://sodipodi.sourceforge.net/DTD/sodipodi-0.dtd"
   xmlns:inkscape="http://www.inkscape.org/namespaces/inkscape"
   width="100"
   height="100"
   id="svg1902"
   sodipodi:version="0.32"
   inkscape:version="0.92.1 r15371"
   version="1.0"
   sodipodi:docname="0099FF.svg">
  <defs
     id="defs1904" />
  <sodipodi:namedview
     id="base"
     pagecolor="#ffffff"
     bordercolor="#666666"
     borderopacity="1.0"
     inkscape:pageopacity="0.0"
     inkscape:pageshadow="2"
     inkscape:zoom="4.1324561"
     inkscape:cx="12.684976"
     inkscape:cy="55.190973"
     inkscape:document-units="px"
     inkscape:current-layer="layer1"
     height="100px"
     width="100px"
     inkscape:window-width="1005"
     inkscape:window-height="706"
     inkscape:window-x="75"
     inkscape:window-y="0"
     showgrid="false"
     inkscape:window-maximized="0" />
  <metadata
     id="metadata1907">
    <rdf:RDF>
      <cc:Work
         rdf:about="">
        <dc:format>image/svg+xml</dc:format>
        <dc:type
           rdf:resource="http://purl.org/dc/dcmitype/StillImage" />
      </cc:Work>
    </rdf:RDF>
  </metadata>
  <g
     inkscape:label="Calque 1"
     inkscape:groupmode="layer"
     id="layer1">
    <path
       style="fill:#0099ff;fill-opacity:1;fill-rule:evenodd;stroke:none"
       d="M 3.2306679,72.958474 4.2955529,50.640946 3.9405947,28.323423 28.787931,13.976442 50.795572,4.7306093 68.898635,14.29526 96.940627,23.859919 96.585666,54.785634 94.810858,75.509052 72.803217,84.754886 50.795572,94.000717 27.723041,82.841951 3.2306679,72.958474 z"
       id="path9657"
       sodipodi:nodetypes="ccccccccccccc"
       inkscape:connector-curvature="0" />
  </g>
</svg>

<!--Created with Inkscape (http://www.inkscape.org/)--><svg xmlns:dc="http://purl.org/dc/elements/1.1/" xmlns:cc="http://creativecommons.org/ns#" xmlns:rdf="http://www.w3.org/1999/02/22-rdf-syntax-ns#" xmlns="http://www.w3.org/2000/svg" xmlns:sodipodi="http://sodipodi.sourceforge.net/DTD/sodipodi-0.dtd" xmlns:inkscape="http://www.inkscape.org/namespaces/inkscape" width="100" height="100" sodipodi:version="0.32" inkscape:version="0.92.1 r15371" version="1.0" sodipodi:docname="0099FF.svg"><sodipodi:namedview pagecolor="#ffffff" bordercolor="#666666" borderopacity="1.0" inkscape:pageopacity="0.0" inkscape:pageshadow="2" inkscape:zoom="4.1324561" inkscape:cx="12.684976" inkscape:cy="55.190973" inkscape:document-units="px" inkscape:current-layer="layer1" height="100px" width="100px" inkscape:window-width="1005" inkscape:window-height="706" inkscape:window-x="75" inkscape:window-y="0" showgrid="false" inkscape:window-maximized="0"/><metadata><rdf:RDF><cc:Work><dc:format>image/svg+xml</dc:format><dc:type rdf:resource="http://purl.org/dc/dcmitype/StillImage"/></cc:Work></rdf:RDF></metadata><path style="fill:#09f;fill-opacity:1;fill-rule:evenodd;stroke:none" d="m3.23 72.958 1.066-22.317-.355-22.318 24.847-14.347 22.008-9.245 18.103 9.564L96.94 23.86l-.355 30.926-1.775 20.723-22.008 9.246L50.796 94 27.723 82.842 3.231 72.958z" sodipodi:nodetypes="ccccccccccccc" inkscape:connector-curvature="0" inkscape:label="Calque 1" inkscape:groupmode="layer"/></svg>
